X: 10
T: Shove the Pig's Foot a Little Further Into the Fire
R: reel
Z: 2009 John Chambers <jc:trillian.mit.edu>
F: http://www.jamielaval.com/Tune_charts/ShoveThePigsFoot.pdf
M: C|
L: 1/8
K: G
|: BcBA G2DE | GAGE D4 | E2G2 B3c | B2 A6 | BcBA G2DE |
GAGE D4 | E2G2 B3G | A2 G6 :: B4 d3g | edBc d4 |
B2d2 g3d | e2 d6 | B4 d3g | edBc d4 | B4 B3G | A2 G6 :|

%%sep 2 1 500

